icons/file-pdf-line.svg

<svg viewBox="0 0 24 24" fill="currentColor" xmlns="http://www.w3.org/2000/svg"><path d="M12 16H8V8H12C14.2091 8 16 9.79086 16 12C16 14.2091 14.2091 16 12 16ZM10 10V14H12C13.1046 14 14 13.1046 14 12C14 10.8954 13.1046 10 12 10H10ZM15 4H5V20H19V8H15V4ZM3 2.9918C3 2.44405 3.44749 2 3.9985 2H16L20.9997 7L21 20.9925C21 21.5489 20.5551 22 20.0066 22H3.9934C3.44476 22 3 21.5447 3 21.0082V2.9918Z"/></svg>

<svg xmlns="http://www.w3.org/2000/svg" viewBox="0 0 24 24">
    <g>
        <path fill="none" d="M0 0h24v24H0z"/>
        <path fill-rule="nonzero" d="M12 16H8V8h4a4 4 0 1 1 0 8zm-2-6v4h2a2 2 0 1 0 0-4h-2zm5-6H5v16h14V8h-4V4zM3 2.992C3 2.444 3.447 2 3.999 2H16l5 5v13.993A1 1 0 0 1 20.007 22H3.993A1 1 0 0 1 3 21.008V2.992z"/>
    </g>
</svg>
